Sources/FrostedUI/Resources/Icons.xcassets/mentionFilled20.imageset/mention-filled-20.svg

<svg width="20" height="20" viewBox="0 0 20 20" fill="none" xmlns="http://www.w3.org/2000/svg" data-fui-icon="true">
  <path
    d="M10 0C15.5226 2.44053e-05 19.9999 4.47732 20 10C20 15.5227 15.5227 20 10 20C4.47731 20 0 15.5227 0 10C5.98235e-05 4.47731 4.47735 0 10 0ZM10.124 3.39844C9.10596 3.39844 8.17939 3.55668 7.34473 3.87305C6.51452 4.18495 5.79813 4.63457 5.19727 5.22168C4.60102 5.80419 4.14235 6.50165 3.82129 7.31348C3.50023 8.12074 3.33984 9.02226 3.33984 10.0176C3.33985 11.0083 3.50022 11.9076 3.82129 12.7148C4.14695 13.5221 4.60883 14.2141 5.20508 14.792C5.80593 15.3745 6.52363 15.8219 7.3584 16.1338C8.19312 16.4502 9.12404 16.6084 10.1514 16.6084C10.9769 16.6084 11.6879 16.5287 12.2842 16.3682C12.6716 16.2646 12.9973 16.1673 13.2607 16.0771C13.4739 16.0041 13.5741 15.7675 13.4922 15.5576L13.208 14.833C13.1233 14.6175 12.8788 14.5114 12.6582 14.582C12.4467 14.6497 12.1937 14.7219 11.8994 14.7988C11.3903 14.9318 10.805 14.999 10.1445 14.999C9.10793 14.999 8.21091 14.7949 7.4541 14.3867C6.70193 13.9831 6.11982 13.409 5.70703 12.666C5.29432 11.9184 5.08791 11.0335 5.08789 10.0107C5.08789 8.98789 5.29422 8.10214 5.70703 7.35449C6.11977 6.60712 6.70439 6.02924 7.46094 5.62109C8.21774 5.21288 9.11479 5.0088 10.1514 5.00879C11.1283 5.00879 11.9749 5.19712 12.6904 5.57324C13.4058 5.94476 13.9588 6.48097 14.3486 7.18262C14.7385 7.87981 14.9336 8.7196 14.9336 9.70117C14.9336 10.4395 14.8181 11.0195 14.5889 11.4414C14.3641 11.8588 14.0524 12.0674 13.6533 12.0674C13.4653 12.0674 13.3161 12.0124 13.2061 11.9023C13.1008 11.7877 13.0479 11.5977 13.0479 11.332V7.125C13.0479 6.89488 12.861 6.70801 12.6309 6.70801H11.9297C11.7417 6.70815 11.5898 6.86082 11.5898 7.04883V7.38477C11.5898 7.38717 11.5874 7.38965 11.585 7.38965C11.5834 7.38963 11.5818 7.38806 11.5811 7.38672C11.4524 7.16307 11.2235 6.96917 10.8945 6.80469C10.5643 6.63498 10.1696 6.5498 9.71094 6.5498C9.15142 6.54983 8.63548 6.68771 8.16309 6.96289C7.69068 7.23351 7.30946 7.62595 7.02051 8.13965C6.73174 8.65327 6.58789 9.27486 6.58789 10.0039C6.58791 10.6735 6.71582 11.2746 6.97266 11.8066C7.22948 12.334 7.59186 12.7513 8.05957 13.0586C8.52737 13.3659 9.0803 13.5195 9.71777 13.5195C10.2727 13.5195 10.7202 13.4096 11.0596 13.1895C11.3977 12.9655 11.6242 12.7072 11.7393 12.415C11.7399 12.4133 11.7423 12.4121 11.7441 12.4121C11.746 12.4122 11.7475 12.4133 11.748 12.415C11.8039 12.6889 11.9783 12.9497 12.2705 13.1963C12.5641 13.4439 13.0115 13.5674 13.6123 13.5674C14.5708 13.5673 15.3189 13.2286 15.8555 12.5498C16.3921 11.8664 16.6601 10.9075 16.6602 9.67383C16.6602 8.41258 16.3898 7.31133 15.8486 6.37109C15.3074 5.43086 14.5459 4.70092 13.5645 4.18262C12.5875 3.65974 11.4404 3.39845 10.124 3.39844ZM9.90332 8.05664C10.4215 8.05664 10.8186 8.22623 11.0938 8.56543C11.3735 8.90027 11.5137 9.3801 11.5137 10.0039C11.5136 10.623 11.3735 11.102 11.0938 11.4414C10.8185 11.7762 10.4216 11.9443 9.90332 11.9443C9.36687 11.9442 8.95168 11.7762 8.6582 11.4414C8.36943 11.1066 8.22463 10.6275 8.22461 10.0039C8.22461 9.3801 8.36924 8.90027 8.6582 8.56543C8.95167 8.22615 9.36692 8.05673 9.90332 8.05664Z"
    fill="currentColor"
  />
</svg>

<svg xmlns="http://www.w3.org/2000/svg" width="20" height="20" fill="none" data-fui-icon="true" viewBox="0 0 20 20"><path fill="currentColor" d="M10 0c5.523 0 10 4.477 10 10s-4.477 10-10 10S0 15.523 0 10 4.477 0 10 0m.124 3.398q-1.527 0-2.78.475a6.1 6.1 0 0 0-2.147 1.349 5.9 5.9 0 0 0-1.376 2.091q-.48 1.212-.481 2.705 0 1.486.481 2.697.49 1.211 1.384 2.077.901.873 2.153 1.342 1.253.474 2.793.474 1.239 0 2.133-.24.581-.155.977-.29a.39.39 0 0 0 .231-.52l-.284-.725a.444.444 0 0 0-.55-.251q-.317.102-.759.217a7 7 0 0 1-1.754.2q-1.556 0-2.69-.612a4.27 4.27 0 0 1-1.748-1.721q-.62-1.122-.62-2.655 0-1.535.62-2.657a4.3 4.3 0 0 1 1.754-1.733q1.136-.612 2.69-.612 1.466 0 2.54.564a3.93 3.93 0 0 1 1.658 1.61q.585 1.046.585 2.518 0 1.109-.345 1.74-.338.626-.936.626a.6.6 0 0 1-.447-.165q-.158-.171-.158-.57V7.125a.417.417 0 0 0-.417-.417h-.701a.34.34 0 0 0-.34.34v.337q-.001.004-.005.005-.003 0-.004-.003-.193-.336-.686-.582Q10.4 6.55 9.71 6.55q-.84 0-1.548.413-.709.406-1.142 1.177-.434.77-.433 1.864 0 1.004.385 1.803.384.79 1.087 1.252.7.46 1.658.46.832 0 1.342-.33.507-.335.68-.774 0-.003.004-.003.003 0 .004.003.084.412.523.781.44.371 1.341.371 1.439 0 2.243-1.017.805-1.025.805-2.876 0-1.892-.811-3.303a5.6 5.6 0 0 0-2.284-2.188q-1.466-.785-3.441-.785m-.22 4.659q.777 0 1.19.508.42.503.42 1.439 0 .928-.42 1.437-.413.503-1.19.503-.805 0-1.246-.503-.433-.502-.433-1.437 0-.936.433-1.439.441-.508 1.245-.508"/></svg>
